X:2
T:Road to Lisdoonvarna
T:(Reel)
C:Traditional (D Mixolydian)
M:4/4
L:1/8
Q:1/2=60
K:G
|:"Dm""Part A"DAAG ABcA
|"C"GE E2 cEGE
|(3"Dm"DDD AG ABcA
|1"C"BcAG "D"FD D2:|2"C"BcAG "D"FDDA||
|"D""Part B"defd "Am""cAAc
|"G"BGGB "Am"cAAA
|"D"defd "Am"cAAc
|1"G"BGAG "D"FDDA:|2"G"BGAG "D"FD D2||
